;FLAVOR:Marlin
;TIME:19350
;Filament used: 18.2592m
;Layer height: 0.2
;MINX:51.996
;MINY:30.875
;MINZ:0.2
;MAXX:168.005
;MAXY:189.125
;MAXZ:29
;Generated with Cura_SteamEngine 5.4.0
M82 ;absolute extrusion mode
; Ender 3 S1 Start G-code
; M413 S0 ; Disable power loss recovery
G92 E0 ; Reset Extruder

; Prep surfaces before auto home for better accuracy
M140 S60
M104 S200

G28 O ; Home all untrusted axes
G1 Z10.0 F3000 ; Move Z Axis up little to prevent scratching of Heat Bed
G1 X0 Y0

M190 S60
M109 S200

G1 X0.1 Y20 Z0.3 F5000.0 ; Move to start position
G1 X0.1 Y200.0 Z0.3 F1500.0 E15 ; Draw the first line
G1 X0.4 Y200.0 Z0.3 F5000.0 ; Move to side a little
G1 X0.4 Y20 Z0.3 F1500.0 E30 ; Draw the second line
G92 E0 ; Reset Extruder
G1 Z2.0 F3000 ; Move Z Axis up little to prevent scratching of Heat Bed
G1 X5 Y20 Z0.3 F5000.0 ; Move over to prevent blob squish

G92 E0
G92 E0
G1 F2400 E-0.8
;LAYER_COUNT:145
;LAYER:0
M107
M204 S2000
G0 F7500 X53.626 Y36.138 Z0.2
M204 S500
;TYPE:SKIRT
G1 F2400 E0
G1 F1500 X54.171 Y35.329 E0.03244
G1 X54.762 Y34.601 E0.06363
G1 X55.464 Y33.876 E0.0972
G1 X56.174 Y33.262 E0.12842
G1 X56.993 Y32.672 E0.16199
G1 X57.832 Y32.176 E0.19441
G1 X58.646 Y31.785 E0.22444
G1 X59.623 Y31.417 E0.25917
G1 X60.527 Y31.167 E0.29036
G1 X61.529 Y30.984 E0.32424
G1 X62.676 Y30.889 E0.36252
G1 X63.325 Y30.875 E0.38411
G1 X76.154 Y30.876 E0.8108
G1 X76.897 Y30.889 E0.83552
G1 X77.87 Y30.95 E0.86795
G1 X78.832 Y31.097 E0.90031
G1 X79.76 Y31.323 E0.93208
G1 X80.211 Y31.464 E0.9478
G1 X81.712 Y31.971 E1.00049
G1 X84.153 Y32.75 E1.08571
G1 X86.581 Y33.449 E1.16975
G1 X88.998 Y34.074 E1.25278
G1 X91.441 Y34.631 E1.33612
G1 X93.964 Y35.131 E1.42167
G1 X96.402 Y35.544 E1.50391
G1 X98.898 Y35.893 E1.58774
G1 X101.398 Y36.172 E1.6714
G1 X103.919 Y36.383 E1.75555
G1 X106.403 Y36.516 E1.83828
G1 X108.969 Y36.584 E1.92366
G1 X111.459 Y36.578 E2.00648
G1 X113.99 Y36.501 E2.0907
G1 X116.495 Y36.355 E2.17416
G1 X118.99 Y36.137 E2.25746
G1 X121.464 Y35.85 E2.34029
G1 X124.011 Y35.482 E2.42589
G1 X126.448 Y35.059 E2.50815
G1 X128.916 Y34.559 E2.59191
G1 X131.383 Y33.985 E2.67615
G1 X133.844 Y33.339 E2.76078
G1 X136.192 Y32.652 E2.84215
G1 X139.893 Y31.43 E2.97178
G1 X140.832 Y31.169 E3.00419
G1 X141.798 Y30.99 E3.03687
G1 X142.931 Y30.892 E3.07469
G1 X143.638 Y30.875 E3.09822
G1 X156.441 Y30.876 E3.52405
G1 X157.174 Y30.887 E3.54843
G1 X158.146 Y30.944 E3.58081
G1 X159.109 Y31.09 E3.61321
G1 X160.055 Y31.319 E3.64558
G1 X160.979 Y31.631 E3.67802
G1 X161.869 Y32.023 E3.71036
G1 X162.692 Y32.474 E3.74158
G1 X163.531 Y33.035 E3.77515
G1 X164.235 Y33.601 E3.80519
G1 X164.988 Y34.326 E3.83996
G1 X165.625 Y35.062 E3.87233
G1 X166.155 Y35.793 E3.90236
G1 X166.691 Y36.69 E3.93712
G1 X167.113 Y37.568 E3.96952
G1 X167.455 Y38.48 E4.00191
G1 X167.715 Y39.418 E4.03429
G1 X167.893 Y40.385 E4.06699
G1 X167.99 Y41.53 E4.10521
G1 X168.005 Y42.205 E4.12767
G1 X168.004 Y157.599 E7.96569
G1 X167.992 Y158.336 E7.9902
G1 X167.933 Y159.308 E8.02259
G1 X167.787 Y160.271 E8.05499
G1 X167.556 Y161.218 E8.08741
G1 X167.243 Y162.139 E8.11976
G1 X166.849 Y163.031 E8.15219
G1 X166.378 Y163.884 E8.1846
G1 X165.834 Y164.69 E8.21694
G1 X165.22 Y165.447 E8.24936
G1 X164.542 Y166.145 E8.28173
G1 X163.816 Y166.773 E8.31366
G1 X163.336 Y167.133 E8.33361
G1 X162.784 Y167.519 E8.35601
G1 X149.762 Y176.292 E8.87825
G1 X148.869 Y176.88 E8.91381
G1 X133.099 Y187.057 E9.53806
G1 X132.46 Y187.456 E9.56312
G1 X131.61 Y187.932 E9.59552
G1 X130.722 Y188.331 E9.6279
G1 X129.802 Y188.651 E9.6603
G1 X128.859 Y188.887 E9.69263
G1 X127.93 Y189.035 E9.72392
G1 X126.856 Y189.107 E9.75972
G1 X125.757 Y189.125 E9.79628
G1 X93.893 Y189.124 E10.85608
G1 X93.165 Y189.112 E10.88029
G1 X92.191 Y189.053 E10.91275
G1 X91.23 Y188.906 E10.94508
G1 X90.284 Y188.675 E10.97747
G1 X89.361 Y188.362 E11.00989
G1 X88.468 Y187.967 E11.04236
G1 X87.562 Y187.464 E11.07683
G1 X86.635 Y186.887 E11.11315
G1 X71.025 Y176.81 E11.73112
G1 X70.172 Y176.248 E11.7651
G1 X57.413 Y167.653 E12.27677
G1 X56.69 Y167.15 E12.30606
G1 X55.919 Y166.556 E12.33844
G1 X55.203 Y165.897 E12.3708
G1 X54.547 Y165.176 E12.40322
G1 X53.959 Y164.4 E12.43561
G1 X53.44 Y163.576 E12.46799
G1 X53.027 Y162.773 E12.49803
G1 X52.633 Y161.806 E12.53276
G1 X52.358 Y160.907 E12.56403
G1 X52.15 Y159.92 E12.59758
G1 X52.041 Y159.024 E12.6276
G1 X52.01 Y158.477 E12.64582
G1 X51.996 Y157.871 E12.66598
G1 X51.996 Y42.384 E16.50709
G1 X52.008 Y41.683 E16.53041
G1 X52.068 Y40.71 E16.56284
G1 X52.215 Y39.749 E16.59517
G1 X52.446 Y38.801 E16.62762
G1 X52.748 Y37.912 E16.65885
G1 X53.155 Y36.99 E16.69237
G1 X53.626 Y36.138 E16.72475
M204 S2000
G0 F7500 X53.958 Y36.361
M204 S500
G1 F1500 X54.482 Y35.581 E16.756
G1 X55.073 Y34.853 E16.78719
G1 X55.726 Y34.179 E16.81841
G1 X56.436 Y33.565 E16.84963
G1 X57.197 Y33.016 E16.88084
G1 X58.005 Y32.537 E16.91208
G1 X58.819 Y32.146 E16.94211
G1 X59.73 Y31.803 E16.97449
G1 X60.634 Y31.553 E17.00568
G1 X61.562 Y31.383 E17.03706
G1 X62.709 Y31.288 E17.07534
G1 X63.325 Y31.275 E17.09584
G1 X76.147 Y31.276 E17.5223
G1 X76.873 Y31.288 E17.54645
G1 X77.81 Y31.345 E17.57767
G1 X78.738 Y31.486 E17.60889
G1 X79.641 Y31.705 E17.63979
G1 X80.083 Y31.843 E17.6552
G1 X81.59 Y32.352 E17.7081
G1 X84.031 Y33.131 E17.79332
G1 X86.475 Y33.835 E17.87792
G1 X88.909 Y34.464 E17.96153
G1 X91.352 Y35.021 E18.04487
G1 X93.891 Y35.524 E18.13096
G1 X96.347 Y35.94 E18.21381
G1 X98.854 Y36.291 E18.298
G1 X101.357 Y36.57 E18.38177
G1 X103.886 Y36.781 E18.46618
G1 X106.392 Y36.916 E18.54965
G1 X108.959 Y36.984 E18.63506
G1 X111.471 Y36.978 E18.71861
G1 X114.002 Y36.901 E18.80283
G1 X116.52 Y36.754 E18.88672
G1 X119.035 Y36.534 E18.97069
G1 X121.521 Y36.246 E19.05393
G1 X124.068 Y35.878 E19.13952
G1 X126.524 Y35.452 E19.22243
G1 X129.007 Y34.949 E19.30669
G1 X131.474 Y34.375 E19.39093
G1 X133.946 Y33.726 E19.47594
G1 X136.318 Y33.032 E19.55814
G1 X140.001 Y31.815 E19.68715
G1 X140.905 Y31.562 E19.71837
G1 X141.832 Y31.389 E19.74974
G1 X142.965 Y31.291 E19.78756
G1 X143.638 Y31.275 E19.80995
G1 X156.435 Y31.276 E20.23558
G1 X157.151 Y31.286 E20.2594
G1 X158.087 Y31.34 E20.29058
G1 X159.016 Y31.479 E20.32182
G1 X159.928 Y31.698 E20.35302
G1 X160.818 Y31.997 E20.38425
G1 X161.677 Y32.374 E20.41545
G1 X162.5 Y32.825 E20.44666
G1 X163.28 Y33.347 E20.47788
G1 X163.984 Y33.913 E20.50792
G1 X164.686 Y34.588 E20.54031
G1 X165.301 Y35.297 E20.57153
G1 X165.831 Y36.028 E20.60156
G1 X166.331 Y36.864 E20.63396
G1 X166.739 Y37.709 E20.66517
G1 X167.07 Y38.587 E20.69638
G1 X167.322 Y39.491 E20.72759
G1 X167.494 Y40.419 E20.75898
G1 X167.591 Y41.564 E20.7972
G1 X167.605 Y42.205 E20.81853
G1 X167.604 Y157.593 E24.65635
G1 X167.593 Y158.312 E24.68026
G1 X167.537 Y159.249 E24.71148
G1 X167.398 Y160.177 E24.74269
G1 X167.177 Y161.09 E24.77394
G1 X166.877 Y161.978 E24.80511
G1 X166.499 Y162.838 E24.83636
G1 X166.046 Y163.661 E24.8676
G1 X165.523 Y164.439 E24.89878
G1 X164.933 Y165.169 E24.93
G1 X164.28 Y165.843 E24.96121
G1 X163.576 Y166.453 E24.9922
G1 X163.106 Y166.805 E25.01173
G1 X162.561 Y167.187 E25.03386
G1 X149.542 Y175.958 E25.55598
G1 X148.652 Y176.544 E25.59142
G1 X132.887 Y186.718 E26.21548
G1 X132.264 Y187.107 E26.2399
G1 X131.446 Y187.567 E26.27112
G1 X130.59 Y187.953 E26.30235
G1 X129.704 Y188.263 E26.33357
G1 X128.795 Y188.492 E26.36475
G1 X127.903 Y188.636 E26.3948
G1 X126.849 Y188.707 E26.42994
G1 X125.757 Y188.725 E26.46626
G1 X93.899 Y188.724 E27.52586
G1 X93.189 Y188.713 E27.54948
G1 X92.251 Y188.657 E27.58073
G1 X91.324 Y188.517 E27.61191
G1 X90.412 Y188.296 E27.64313
G1 X89.522 Y187.996 E27.67436
G1 X88.662 Y187.617 E27.70562
G1 X87.773 Y187.124 E27.73943
G1 X86.852 Y186.551 E27.77551
G1 X71.245 Y176.476 E28.39336
G1 X70.395 Y175.916 E28.42722
G1 X57.641 Y167.324 E28.9387
G1 X56.934 Y166.833 E28.96733
G1 X56.189 Y166.261 E28.99857
G1 X55.498 Y165.627 E29.02976
G1 X54.865 Y164.934 E29.06098
G1 X54.297 Y164.187 E29.09219
G1 X53.796 Y163.393 E29.12341
G1 X53.383 Y162.59 E29.15345
G1 X53.016 Y161.689 E29.18581
G1 X52.741 Y160.79 E29.21707
G1 X52.547 Y159.872 E29.24828
G1 X52.438 Y158.976 E29.2783
G1 X52.41 Y158.468 E29.29522
G1 X52.396 Y157.862 E29.31539
G1 X52.396 Y42.39 E33.156
G1 X52.407 Y41.707 E33.17872
G1 X52.464 Y40.77 E33.20994
G1 X52.604 Y39.843 E33.24112
G1 X52.825 Y38.93 E33.27237
G1 X53.127 Y38.041 E33.30359
G1 X53.505 Y37.183 E33.33478
G1 X53.958 Y36.361 E33.36599
M204 S2000
G0 F7500 X54.29 Y36.584
M204 S500
G1 F1500 X54.793 Y35.833 E33.39606
G1 X55.361 Y35.131 E33.42609
G1 X55.988 Y34.481 E33.45613
G1 X56.67 Y33.889 E33.48617
G1 X57.402 Y33.36 E33.51621
G1 X58.178 Y32.898 E33.54624
G1 X58.992 Y32.507 E33.57628
G1 X59.837 Y32.188 E33.60632
G1 X60.707 Y31.946 E33.63635
G1 X61.595 Y31.782 E33.66639
G1 X62.718 Y31.688 E33.70387
G1 X63.325 Y31.675 E33.72406
G1 X76.141 Y31.676 E34.15033
G1 X76.849 Y31.687 E34.17388
G1 X77.751 Y31.741 E34.20393
G1 X78.644 Y31.875 E34.23397
G1 X79.522 Y32.087 E34.26401
G1 X79.955 Y32.222 E34.27909
G1 X81.468 Y32.733 E34.33221
G1 X83.909 Y33.512 E34.41743
G1 X86.369 Y34.221 E34.50258
G1 X88.82 Y34.854 E34.58678
G1 X91.263 Y35.411 E34.67012
G1 X93.818 Y35.917 E34.75675
G1 X96.291 Y36.336 E34.84017
G1 X98.81 Y36.689 E34.92477
G1 X101.316 Y36.968 E35.00864
G1 X103.853 Y37.179 E35.09331
G1 X106.381 Y37.316 E35.17751
G1 X108.949 Y37.384 E35.26296
G1 X111.483 Y37.378 E35.34724
G1 X114.014 Y37.301 E35.43146
G1 X116.545 Y37.153 E35.51578
G1 X119.08 Y36.931 E35.60042
G1 X121.578 Y36.642 E35.68406
G1 X124.125 Y36.274 E35.76965
G1 X126.6 Y35.845 E35.8532
G1 X129.098 Y35.339 E35.93797
G1 X131.565 Y34.765 E36.02221
G1 X134.048 Y34.113 E36.1076
G1 X136.444 Y33.412 E36.19063
G1 X140.11 Y32.2 E36.31905
G1 X140.979 Y31.955 E36.34908
G1 X141.866 Y31.788 E36.3791
G1 X142.999 Y31.69 E36.41693
G1 X143.638 Y31.675 E36.43818
G1 X156.43 Y31.676 E36.86365
G1 X157.128 Y31.685 E36.88687
G1 X158.029 Y31.736 E36.91688
G1 X158.923 Y31.868 E36.94694
G1 X159.801 Y32.077 E36.97696
G1 X160.658 Y32.364 E37.00702
G1 X161.485 Y32.725 E37.03703
G1 X162.278 Y33.158 E37.06708
G1 X163.029 Y33.659 E37.09711
G1 X163.733 Y34.225 E37.12715
G1 X164.384 Y34.851 E37.15719
G1 X164.977 Y35.532 E37.18722
G1 X165.507 Y36.263 E37.21725
G1 X165.971 Y37.038 E37.2473
G1 X166.365 Y37.851 E37.27735
G1 X166.685 Y38.695 E37.30737
G1 X166.929 Y39.565 E37.33742
G1 X167.095 Y40.453 E37.36747
G1 X167.192 Y41.598 E37.40569
G1 X167.205 Y42.205 E37.42588
G1 X167.204 Y157.587 E41.2635
G1 X167.194 Y158.289 E41.28685
G1 X167.141 Y159.191 E41.3169
G1 X167.009 Y160.084 E41.34693
G1 X166.798 Y160.962 E41.37696
G1 X166.51 Y161.818 E41.407
G1 X166.148 Y162.646 E41.43706
G1 X165.714 Y163.438 E41.4671
G1 X165.211 Y164.188 E41.49713
G1 X164.645 Y164.891 E41.52715
G1 X164.018 Y165.541 E41.55719
G1 X163.336 Y166.133 E41.58722
G1 X162.877 Y166.477 E41.6063
G1 X162.337 Y166.855 E41.62823
G1 X149.322 Y175.624 E42.15019
G1 X148.435 Y176.208 E42.18552
G1 X132.675 Y186.379 E42.80938
G1 X132.067 Y186.759 E42.83322
G1 X131.281 Y187.203 E42.86325
G1 X130.458 Y187.576 E42.8933
G1 X129.606 Y187.875 E42.92334
G1 X128.731 Y188.097 E42.95336
G1 X127.839 Y188.241 E42.98341
G1 X126.842 Y188.307 E43.01664
G1 X125.757 Y188.325 E43.05274
G1 X93.905 Y188.324 E44.11214
G1 X93.212 Y188.314 E44.13519
G1 X92.31 Y188.261 E44.16524
G1 X91.417 Y188.128 E44.19527
G1 X90.539 Y187.917 E44.22531
G1 X89.683 Y187.63 E44.25533
G1 X88.856 Y187.267 E44.28537
G1 X87.984 Y186.784 E44.31853
G1 X87.069 Y186.215 E44.35437
G1 X71.465 Y176.142 E44.9721
G1 X70.618 Y175.584 E45.00584
G1 X57.869 Y166.996 E45.5171
G1 X57.177 Y166.515 E45.54513
G1 X56.459 Y165.966 E45.57519
G1 X55.793 Y165.357 E45.60521
G1 X55.183 Y164.691 E45.63525
G1 X54.635 Y163.973 E45.66529
G1 X54.152 Y163.21 E45.69532
G1 X53.739 Y162.407 E45.72536
G1 X53.398 Y161.571 E45.75539
G1 X53.132 Y160.707 E45.78546
G1 X52.944 Y159.824 E45.81548
G1 X52.835 Y158.928 E45.8455
G1 X52.81 Y158.459 E45.86112
G1 X52.796 Y157.853 E45.88129
G1 X52.796 Y42.396 E49.7214
G1 X52.806 Y41.731 E49.74352
G1 X52.86 Y40.829 E49.77358
G1 X52.993 Y39.936 E49.8036
G1 X53.204 Y39.058 E49.83364
G1 X53.493 Y38.202 E49.86369
G1 X53.856 Y37.375 E49.89373
G1 X54.29 Y36.584 E49.92374
M204 S2000
G1 F2400 E49.12374
;MESH:baseB.stl
G0 F7500 X62.33 Y42.676
G0 X93.523 Y177.525
M204 S500
;TYPE:WALL-INNER
G1 F2400 E49.92374
G1 F1500 X126.477 Y177.525 E51.01979
G1 X142.983 Y166.873 E51.67317
G1 X156.405 Y157.829 E52.21148
G1 X156.405 Y42.475 E56.04817
G1 X143.909 Y42.475 E56.46379
G1 X143.907 Y149.653 E60.02854
G1 X143.793 Y149.945 E60.03897
G1 X143.636 Y150.092 E60.04612
G1 X126.982 Y160.841 E60.70539
G1 X126.711 Y160.934 E60.71492
G1 X93.289 Y160.934 E61.82654
G1 X93.069 Y160.87 E61.83416
G1 X76.354 Y150.085 E62.49579
G1 X76.207 Y149.945 E62.50254
G1 X76.09 Y149.66 E62.51278
G1 X76.09 Y42.476 E66.07774
G1 X63.596 Y42.476 E66.49329
G1 X63.595 Y157.829 E70.32995
G1 X77.018 Y166.873 E70.86828
G1 X93.523 Y177.525 E71.52164
M204 S2000
G1 F2400 E70.72164
G0 F7500 X93.503 Y177.392
G0 X126.496 Y177.394
G0 X126.595 Y177.925
M204 S500
;TYPE:WALL-OUTER
G1 F2400 E71.52164
G1 F1500 X143.262 Y167.168 E72.18141
G1 X156.805 Y158.042 E72.72458
G1 X156.805 Y42.075 E76.58166
G1 X143.509 Y42.075 E77.02388
G1 X143.508 Y149.622 E80.60091
G1 X143.462 Y149.728 E80.60476
G1 X126.717 Y160.536 E81.26763
G1 X93.283 Y160.536 E82.37965
G1 X76.538 Y149.727 E83.04255
G1 X76.492 Y149.622 E83.04636
G1 X76.49 Y42.076 E86.62335
G1 X63.196 Y42.076 E87.06551
G1 X63.195 Y158.042 E90.92256
G1 X76.798 Y167.207 E91.46811
G1 X93.405 Y177.925 E92.1255
G1 X126.595 Y177.925 E93.22941
M204 S2000
G0 F7500 X126.37 Y177.165
M204 S500
;TYPE:SKIN
G1 F1500 X93.63 Y177.165 E94.31834
G1 X77.213 Y166.571 E94.96819
G1 X63.955 Y157.638 E95.49991
G1 X63.956 Y42.836 E99.31824
G1 X75.73 Y42.836 E99.70985
G1 X75.732 Y149.712 E103.26456
G1 X75.864 Y150.086 E103.27775
G1 X76.137 Y150.373 E103.29092
G1 X92.937 Y161.213 E103.95591
G1 X93.249 Y161.292 E103.96662
G1 X126.751 Y161.292 E105.0809
G1 X127.055 Y161.216 E105.09132
G1 X143.925 Y150.327 E105.75915
G1 X144.179 Y150.003 E105.77285
G1 X144.264 Y149.703 E105.78322
G1 X144.269 Y42.835 E109.33766
G1 X156.045 Y42.835 E109.72933
G1 X156.045 Y157.637 E113.54766
G1 X142.895 Y166.498 E114.07506
G1 X126.37 Y177.165 E114.72925
M204 S2000
G1 F2400 E113.92925
G0 F7500 X126.511 Y177.384
G0 X93.571 Y177.363
G0 X77.106 Y166.739
G0 X63.76 Y157.741
G0 X63.696 Y157.491
G0 X64.155 Y157.493
M204 S500
G1 F2400 E114.72925
G1 F1500 X64.271 Y157.609 E114.73471
M204 S2000
G0 F7500 X64.155 Y156.927
M204 S500
G1 F1500 X66.005 Y158.777 E114.82172
M204 S2000
G0 F7500 X65.748 Y159.157
G0 X67.481 Y160.326
G0 X67.739 Y159.946
M204 S500
G1 F1500 X64.155 Y156.361 E114.99033
M204 S2000
G0 F7500 X64.155 Y155.796
M204 S500
G1 F1500 X69.473 Y161.114 E115.24047
M204 S2000
G0 F7500 X69.215 Y161.494
G0 X70.95 Y162.663
G0 X71.207 Y162.282
M204 S500
G1 F1500 X64.155 Y155.23 E115.57218
M204 S2000
G0 F7500 X64.155 Y154.664
M204 S500
G1 F1500 X72.94 Y163.45 E115.98542
M204 S2000
G0 F7500 X72.682 Y163.83
G0 X74.416 Y164.998
G0 X74.674 Y164.618
M204 S500
G1 F1500 X64.155 Y154.099 E116.4802
M204 S2000
G0 F7500 X64.155 Y153.533
M204 S500
G1 F1500 X76.408 Y165.786 E117.05654
M204 S2000
G0 F7500 X76.151 Y166.167
G0 X77.826 Y167.275
G0 X78.076 Y166.889
M204 S500
G1 F1500 X64.155 Y152.967 E117.71137
M204 S2000
G0 F7500 X64.155 Y152.402
M204 S500
G1 F1500 X79.671 Y167.918 E118.44119
M204 S2000
G0 F7500 X79.421 Y168.304
G0 X81.017 Y169.335
G0 X81.267 Y168.948
M204 S500
G1 F1500 X64.155 Y151.836 E119.24609
M204 S2000
G0 F7500 X64.155 Y151.27
M204 S500
G1 F1500 X82.862 Y169.977 E120.12601
M204 S2000
G0 F7500 X82.613 Y170.364
G0 X84.207 Y171.393
G0 X84.456 Y171.006
M204 S500
G1 F1500 X64.155 Y150.704 E121.08093
M204 S2000
G0 F7500 X64.155 Y150.139
M204 S500
G1 F1500 X86.052 Y172.036 E122.1109
M204 S2000
G0 F7500 X85.803 Y172.423
G0 X87.397 Y173.452
G0 X87.647 Y173.065
M204 S500
G1 F1500 X64.155 Y149.573 E123.21589
M204 S2000
G0 F7500 X64.155 Y149.007
M204 S500
G1 F1500 X89.242 Y174.095 E124.39593
M204 S2000
G0 F7500 X88.992 Y174.481
G0 X90.587 Y175.511
G0 X90.837 Y175.124
M204 S500
G1 F1500 X64.155 Y148.442 E125.65097
M204 S2000
