;FLAVOR:Marlin
;TIME:4974
;Filament used: 4.04841m
;Layer height: 0.2
;MINX:54.598
;MINY:79.465
;MINZ:0.2
;MAXX:165.402
;MAXY:140.535
;MAXZ:11
;Generated with Cura_SteamEngine 5.4.0
M82 ;absolute extrusion mode
; Ender 3 S1 Start G-code
; M413 S0 ; Disable power loss recovery
G92 E0 ; Reset Extruder

; Prep surfaces before auto home for better accuracy
M140 S60
M104 S200

G28 O ; Home all untrusted axes
G1 Z10.0 F3000 ; Move Z Axis up little to prevent scratching of Heat Bed
G1 X0 Y0

M190 S60
M109 S200

G1 X0.1 Y20 Z0.3 F5000.0 ; Move to start position
G1 X0.1 Y200.0 Z0.3 F1500.0 E15 ; Draw the first line
G1 X0.4 Y200.0 Z0.3 F5000.0 ; Move to side a little
G1 X0.4 Y20 Z0.3 F1500.0 E30 ; Draw the second line
G92 E0 ; Reset Extruder
G1 Z2.0 F3000 ; Move Z Axis up little to prevent scratching of Heat Bed
G1 X5 Y20 Z0.3 F5000.0 ; Move over to prevent blob squish

G92 E0
G92 E0
G1 F2400 E-0.8
;LAYER_COUNT:55
;LAYER:0
M107
M204 S2000
G0 F7500 X66.66 Y85.586 Z0.2
M204 S500
;TYPE:SKIRT
G1 F2400 E0
G1 F1500 X67.424 Y85.054 E0.03096
G1 X67.937 Y84.746 E0.05087
G1 X69.022 Y84.137 E0.09225
G1 X71.624 Y82.619 E0.19244
G1 X72.47 Y82.163 E0.22441
G1 X73.029 Y81.912 E0.24479
G1 X73.662 Y81.649 E0.26759
G1 X74.394 Y81.366 E0.29369
G1 X75.291 Y81.05 E0.32532
G1 X76.078 Y80.798 E0.35281
G1 X77.043 Y80.541 E0.38602
G1 X77.584 Y80.437 E0.40434
G1 X78.856 Y80.226 E0.44723
G1 X79.018 Y80.191 E0.45274
G1 X79.832 Y80.06 E0.48016
G1 X81.869 Y79.682 E0.54907
G1 X82.819 Y79.55 E0.58097
G1 X83.347 Y79.512 E0.59858
G1 X84.072 Y79.48 E0.62272
G1 X84.825 Y79.465 E0.64777
G1 X85.761 Y79.474 E0.6789
G1 X86.585 Y79.505 E0.70632
G1 X87.58 Y79.594 E0.73955
G1 X88.113 Y79.679 E0.7575
G1 X91.897 Y80.353 E0.88534
G1 X92.66 Y80.48 E0.91107
G1 X93.38 Y80.616 E0.93544
G1 X95.937 Y81.063 E1.02177
G1 X98.405 Y81.423 E1.10473
G1 X100.953 Y81.722 E1.19006
G1 X103.388 Y81.937 E1.27136
G1 X105.928 Y82.089 E1.35599
G1 X108.468 Y82.169 E1.44051
G1 X110.958 Y82.178 E1.52333
G1 X113.517 Y82.114 E1.60847
G1 X115.98 Y81.984 E1.69051
G1 X118.476 Y81.779 E1.7738
G1 X121.039 Y81.496 E1.85957
G1 X123.442 Y81.163 E1.94025
G1 X127.491 Y80.454 E2.07697
G1 X129.814 Y80.064 E2.15532
G1 X131.869 Y79.682 E2.22484
G1 X132.819 Y79.55 E2.25674
G1 X133.347 Y79.512 E2.27435
G1 X134.072 Y79.48 E2.29848
G1 X134.825 Y79.465 E2.32353
G1 X135.761 Y79.474 E2.35467
G1 X136.585 Y79.505 E2.38209
G1 X137.58 Y79.594 E2.41532
G1 X138.113 Y79.679 E2.43327
G1 X141.935 Y80.36 E2.56239
G1 X142.369 Y80.43 E2.57701
G1 X143.254 Y80.613 E2.60707
G1 X143.876 Y80.787 E2.62855
G1 X144.548 Y80.998 E2.65198
G1 X145.255 Y81.238 E2.67681
G1 X146.148 Y81.573 E2.70853
G1 X146.959 Y81.906 E2.73769
G1 X147.827 Y82.312 E2.76957
G1 X148.307 Y82.578 E2.78782
G1 X150.014 Y83.585 E2.85374
G1 X152.106 Y84.772 E2.93374
G1 X152.871 Y85.252 E2.96377
G1 X153.325 Y85.579 E2.98238
G1 X153.912 Y86.028 E3.00696
G1 X154.772 Y86.73 E3.04389
G1 X155.381 Y87.261 E3.07076
G1 X155.812 Y87.654 E3.09016
G1 X156.504 Y88.346 E3.12271
G1 X156.883 Y88.782 E3.14192
G1 X158.177 Y90.354 E3.20964
G1 X159.704 Y92.145 E3.28793
G1 X160.259 Y92.858 E3.31798
G1 X160.566 Y93.311 E3.33618
G1 X161.138 Y94.213 E3.3717
G1 X161.375 Y94.613 E3.38717
G1 X161.942 Y95.626 E3.42578
G1 X162.206 Y96.132 E3.44476
G1 X162.607 Y96.992 E3.47632
G1 X162.821 Y97.553 E3.49629
G1 X163.305 Y98.927 E3.54474
G1 X164.33 Y101.698 E3.64301
G1 X164.613 Y102.583 E3.67391
G1 X164.735 Y103.074 E3.69074
G1 X164.887 Y103.754 E3.71392
G1 X165.047 Y104.557 E3.74115
G1 X165.19 Y105.423 E3.77034
G1 X165.31 Y106.303 E3.79988
G1 X165.393 Y107.261 E3.83186
G1 X165.401 Y107.837 E3.85102
G1 X165.384 Y109.322 E3.90042
G1 X165.402 Y112.218 E3.99674
G1 X165.363 Y113.174 E4.02857
G1 X165.309 Y113.674 E4.04529
G1 X165.17 Y114.707 E4.07996
G1 X165.047 Y115.439 E4.10465
G1 X164.943 Y115.987 E4.1232
G1 X164.745 Y116.896 E4.15414
G1 X164.495 Y117.821 E4.18601
G1 X164.313 Y118.351 E4.20465
G1 X163.719 Y119.934 E4.26088
G1 X162.808 Y122.482 E4.35089
G1 X162.446 Y123.367 E4.38269
G1 X162.233 Y123.803 E4.39883
G1 X161.752 Y124.722 E4.43333
G1 X161.368 Y125.401 E4.45927
G1 X160.914 Y126.153 E4.48849
G1 X160.608 Y126.634 E4.50745
G1 X160.057 Y127.42 E4.53938
G1 X159.695 Y127.866 E4.55848
G1 X158.793 Y128.921 E4.60465
G1 X156.871 Y131.232 E4.70462
G1 X155.887 Y132.268 E4.75214
G1 X155.343 Y132.77 E4.77676
G1 X154.954 Y133.11 E4.79395
G1 X154.152 Y133.779 E4.82868
G1 X153.353 Y134.403 E4.8624
G1 X152.589 Y134.938 E4.89342
G1 X152.063 Y135.254 E4.91383
G1 X150.98 Y135.862 E4.95514
G1 X148.376 Y137.381 E5.05541
G1 X147.53 Y137.837 E5.08738
G1 X146.971 Y138.088 E5.10776
G1 X146.338 Y138.351 E5.13055
G1 X145.606 Y138.634 E5.15666
G1 X144.709 Y138.95 E5.18829
G1 X143.922 Y139.202 E5.21577
G1 X142.957 Y139.459 E5.24899
G1 X142.416 Y139.563 E5.26731
G1 X141.144 Y139.774 E5.3102
G1 X140.982 Y139.809 E5.31571
G1 X140.168 Y139.94 E5.34313
G1 X138.131 Y140.318 E5.41204
G1 X137.181 Y140.45 E5.44394
G1 X136.653 Y140.488 E5.46155
G1 X135.928 Y140.52 E5.48568
G1 X135.175 Y140.535 E5.51073
G1 X134.239 Y140.526 E5.54187
G1 X133.415 Y140.495 E5.56929
G1 X132.42 Y140.406 E5.60252
G1 X131.887 Y140.321 E5.62047
G1 X128.103 Y139.647 E5.74831
G1 X127.34 Y139.52 E5.77403
G1 X126.62 Y139.384 E5.7984
G1 X124.063 Y138.937 E5.88474
G1 X121.595 Y138.577 E5.96769
G1 X119.047 Y138.278 E6.05302
G1 X116.612 Y138.063 E6.13433
G1 X114.072 Y137.911 E6.21896
G1 X111.532 Y137.831 E6.30348
G1 X109.042 Y137.822 E6.3863
G1 X106.483 Y137.886 E6.47144
G1 X104.019 Y138.018 E6.55351
G1 X101.528 Y138.221 E6.63663
G1 X98.961 Y138.504 E6.72253
G1 X96.561 Y138.837 E6.80312
G1 X90.982 Y139.809 E6.99147
G1 X90.168 Y139.94 E7.0189
G1 X88.131 Y140.318 E7.0878
G1 X87.181 Y140.45 E7.1197
G1 X86.653 Y140.488 E7.13731
G1 X85.928 Y140.52 E7.16145
G1 X85.175 Y140.535 E7.1865
G1 X84.239 Y140.526 E7.21763
G1 X83.415 Y140.495 E7.24506
G1 X82.42 Y140.406 E7.27828
G1 X81.887 Y140.321 E7.29623
G1 X78.065 Y139.64 E7.42536
G1 X77.631 Y139.57 E7.43998
G1 X76.746 Y139.387 E7.47004
G1 X76.124 Y139.213 E7.49152
G1 X75.452 Y139.002 E7.51494
G1 X74.734 Y138.758 E7.54017
G1 X73.854 Y138.427 E7.57144
G1 X73.041 Y138.094 E7.60066
G1 X72.173 Y137.688 E7.63253
G1 X71.693 Y137.422 E7.65078
G1 X69.991 Y136.418 E7.71651
G1 X67.893 Y135.227 E7.79675
G1 X67.084 Y134.717 E7.82855
G1 X66.683 Y134.426 E7.84503
G1 X66.097 Y133.977 E7.86959
G1 X65.229 Y133.271 E7.9068
G1 X64.604 Y132.725 E7.9344
G1 X64.155 Y132.314 E7.95465
G1 X63.497 Y131.655 E7.98562
G1 X63.112 Y131.212 E8.00514
G1 X61.818 Y129.64 E8.07286
G1 X60.296 Y127.855 E8.15088
G1 X59.741 Y127.142 E8.18094
G1 X59.434 Y126.689 E8.19914
G1 X58.857 Y125.777 E8.23503
G1 X58.479 Y125.133 E8.25987
G1 X58.047 Y124.352 E8.28955
G1 X57.793 Y123.865 E8.30782
G1 X57.404 Y123.031 E8.33843
G1 X57.178 Y122.446 E8.35929
G1 X56.683 Y121.042 E8.4088
G1 X55.67 Y118.303 E8.50593
G1 X55.387 Y117.418 E8.53684
G1 X55.264 Y116.923 E8.5538
G1 X55.112 Y116.243 E8.57698
G1 X54.948 Y115.416 E8.60502
G1 X54.809 Y114.569 E8.63357
G1 X54.691 Y113.703 E8.66264
G1 X54.608 Y112.746 E8.69459
G1 X54.599 Y112.165 E8.71391
G1 X54.616 Y110.672 E8.76357
G1 X54.598 Y107.782 E8.8597
G1 X54.637 Y106.826 E8.89152
G1 X54.689 Y106.33 E8.90811
G1 X54.783 Y105.62 E8.93193
G1 X54.906 Y104.826 E8.95865
G1 X55.12 Y103.705 E8.99661
G1 X55.255 Y103.1 E9.01723
G1 X55.505 Y102.174 E9.04913
G1 X55.691 Y101.64 E9.06794
G1 X56.27 Y100.096 E9.12278
G1 X57.185 Y97.534 E9.21327
G1 X57.554 Y96.633 E9.24565
G1 X57.767 Y96.197 E9.26179
G1 X58.248 Y95.278 E9.29629
G1 X58.632 Y94.599 E9.32223
G1 X59.086 Y93.847 E9.35145
G1 X59.392 Y93.366 E9.37041
G1 X59.926 Y92.603 E9.40138
G1 X60.309 Y92.13 E9.42163
G1 X61.18 Y91.113 E9.46616
G1 X63.166 Y88.73 E9.56934
G1 X64.124 Y87.721 E9.61562
G1 X64.648 Y87.237 E9.63934
G1 X65.041 Y86.893 E9.65671
G1 X65.848 Y86.22 E9.69166
G1 X66.66 Y85.586 E9.72593
M204 S2000
G0 F7500 X66.889 Y85.914
M204 S500
G1 F1500 X67.63 Y85.397 E9.75598
G1 X68.133 Y85.095 E9.77549
G1 X69.218 Y84.486 E9.81687
G1 X71.814 Y82.971 E9.91685
G1 X72.634 Y82.528 E9.94784
G1 X73.183 Y82.281 E9.96787
G1 X73.806 Y82.022 E9.99031
G1 X74.527 Y81.743 E10.01602
G1 X75.413 Y81.431 E10.04726
G1 X76.2 Y81.179 E10.07475
G1 X77.118 Y80.934 E10.10635
G1 X77.649 Y80.832 E10.12433
G1 X78.933 Y80.619 E10.16762
G1 X79.082 Y80.586 E10.1727
G1 X79.896 Y80.455 E10.20012
G1 X81.924 Y80.078 E10.26873
G1 X82.847 Y79.949 E10.29973
G1 X83.365 Y79.912 E10.317
G1 X84.08 Y79.88 E10.3408
G1 X84.821 Y79.865 E10.36545
G1 X85.746 Y79.874 E10.39622
G1 X86.57 Y79.905 E10.42365
G1 X87.517 Y79.989 E10.45527
G1 X88.043 Y80.073 E10.47298
G1 X91.832 Y80.748 E10.60099
G1 X92.586 Y80.873 E10.62641
G1 X93.311 Y81.01 E10.65095
G1 X95.879 Y81.459 E10.73766
G1 X98.347 Y81.819 E10.82061
G1 X100.906 Y82.119 E10.90631
G1 X103.364 Y82.336 E10.98838
G1 X105.915 Y82.489 E11.07338
G1 X108.455 Y82.569 E11.1579
G1 X110.967 Y82.578 E11.24145
G1 X113.527 Y82.514 E11.32663
G1 X116.013 Y82.382 E11.40943
G1 X118.517 Y82.177 E11.49299
G1 X121.083 Y81.894 E11.57885
G1 X123.509 Y81.557 E11.66032
G1 X127.557 Y80.848 E11.797
G1 X129.887 Y80.457 E11.87558
G1 X131.924 Y80.078 E11.9445
G1 X132.847 Y79.949 E11.97549
G1 X133.365 Y79.912 E11.99277
G1 X134.08 Y79.88 E12.01657
G1 X134.821 Y79.865 E12.04122
G1 X135.746 Y79.874 E12.07199
G1 X136.57 Y79.905 E12.09941
G1 X137.517 Y79.989 E12.13103
G1 X138.043 Y80.073 E12.14875
G1 X141.865 Y80.754 E12.27787
G1 X142.288 Y80.822 E12.29212
G1 X143.173 Y81.005 E12.32218
G1 X143.756 Y81.169 E12.34232
G1 X144.42 Y81.377 E12.36547
G1 X145.114 Y81.612 E12.38984
G1 X145.996 Y81.943 E12.42117
G1 X146.79 Y82.268 E12.44971
G1 X147.633 Y82.662 E12.48066
G1 X148.104 Y82.923 E12.49857
G1 X149.811 Y83.93 E12.56448
G1 X151.893 Y85.111 E12.6441
G1 X152.658 Y85.591 E12.67413
G1 X153.082 Y85.897 E12.69153
G1 X153.659 Y86.338 E12.71568
G1 X154.509 Y87.031 E12.75216
G1 X155.111 Y87.557 E12.77875
G1 X155.542 Y87.95 E12.79814
G1 X156.202 Y88.608 E12.82914
G1 X156.574 Y89.036 E12.848
G1 X157.873 Y90.614 E12.91598
G1 X159.388 Y92.391 E12.99365
G1 X159.943 Y93.104 E13.0237
G1 X160.228 Y93.525 E13.04061
G1 X160.794 Y94.417 E13.07575
G1 X161.026 Y94.808 E13.09087
G1 X161.587 Y95.811 E13.12909
G1 X161.843 Y96.301 E13.14748
G1 X162.244 Y97.161 E13.17904
G1 X162.444 Y97.686 E13.19773
G1 X162.93 Y99.066 E13.24639
G1 X163.949 Y101.82 E13.34406
G1 X164.225 Y102.68 E13.3741
G1 X164.345 Y103.161 E13.39059
G1 X164.495 Y103.832 E13.41345
G1 X164.652 Y104.623 E13.44028
G1 X164.794 Y105.477 E13.46907
G1 X164.912 Y106.338 E13.49798
G1 X164.993 Y107.267 E13.52899
G1 X165.001 Y107.832 E13.54779
G1 X164.984 Y109.317 E13.59718
G1 X165.002 Y112.202 E13.69314
G1 X164.965 Y113.132 E13.72409
G1 X164.913 Y113.62 E13.74042
G1 X164.775 Y114.641 E13.77468
G1 X164.654 Y115.364 E13.79907
G1 X164.552 Y115.902 E13.81728
G1 X164.359 Y116.792 E13.84757
G1 X164.117 Y117.691 E13.87853
G1 X163.938 Y118.21 E13.89679
G1 X163.344 Y119.793 E13.95303
G1 X162.438 Y122.331 E14.04266
G1 X162.087 Y123.191 E14.07355
G1 X161.878 Y123.618 E14.08937
G1 X161.404 Y124.525 E14.1234
G1 X161.026 Y125.194 E14.14896
G1 X160.576 Y125.939 E14.17791
G1 X160.28 Y126.405 E14.19627
G1 X159.746 Y127.168 E14.22725
G1 X159.391 Y127.606 E14.246
G1 X158.485 Y128.665 E14.29235
G1 X156.563 Y130.976 E14.39233
G1 X155.597 Y131.992 E14.43895
G1 X155.08 Y132.469 E14.46235
G1 X154.698 Y132.803 E14.47923
G1 X153.906 Y133.464 E14.51354
G1 X153.123 Y134.076 E14.54659
G1 X152.383 Y134.595 E14.57665
G1 X151.867 Y134.905 E14.59668
G1 X150.784 Y135.513 E14.63798
G1 X148.186 Y137.029 E14.73803
G1 X147.366 Y137.472 E14.76903
G1 X146.817 Y137.719 E14.78905
G1 X146.194 Y137.978 E14.81149
G1 X145.473 Y138.257 E14.83721
G1 X144.587 Y138.569 E14.86845
G1 X143.8 Y138.821 E14.89593
G1 X142.882 Y139.066 E14.92753
G1 X142.351 Y139.168 E14.94552
G1 X141.067 Y139.381 E14.98881
G1 X140.918 Y139.414 E14.99388
G1 X140.104 Y139.545 E15.02131
G1 X138.076 Y139.922 E15.08991
G1 X137.153 Y140.051 E15.12091
G1 X136.635 Y140.088 E15.13818
G1 X135.92 Y140.12 E15.16199
G1 X135.179 Y140.135 E15.18664
G1 X134.254 Y140.126 E15.21741
G1 X133.43 Y140.095 E15.24483
G1 X132.483 Y140.011 E15.27645
G1 X131.957 Y139.927 E15.29417
G1 X128.168 Y139.252 E15.42218
G1 X127.414 Y139.127 E15.4476
G1 X126.689 Y138.99 E15.47214
G1 X124.121 Y138.541 E15.55884
G1 X121.653 Y138.181 E15.6418
G1 X119.094 Y137.881 E15.72749
G1 X116.636 Y137.664 E15.80957
G1 X114.085 Y137.511 E15.89456
G1 X111.545 Y137.431 E15.97909
G1 X109.033 Y137.422 E16.06264
G1 X106.473 Y137.486 E16.14781
G1 X103.987 Y137.619 E16.23061
G1 X101.484 Y137.823 E16.31414
G1 X98.917 Y138.106 E16.40004
G1 X96.492 Y138.443 E16.48147
G1 X90.918 Y139.414 E16.66965
G1 X90.104 Y139.545 E16.69707
G1 X88.076 Y139.922 E16.76568
G1 X87.153 Y140.051 E16.79668
G1 X86.635 Y140.088 E16.81395
G1 X85.92 Y140.12 E16.83775
G1 X85.179 Y140.135 E16.8624
G1 X84.254 Y140.126 E16.89317
G1 X83.43 Y140.095 E16.9206
G1 X82.483 Y140.011 E16.95222
G1 X81.957 Y139.927 E16.96994
G1 X78.135 Y139.246 E17.09906
G1 X77.712 Y139.178 E17.11331
G1 X76.827 Y138.995 E17.14337
G1 X76.244 Y138.831 E17.16351
G1 X75.58 Y138.623 E17.18665
G1 X74.875 Y138.384 E17.21141
G1 X74.005 Y138.057 E17.24232
G1 X73.21 Y137.732 E17.27089
G1 X72.367 Y137.338 E17.30184
G1 X71.896 Y137.077 E17.31975
G1 X70.194 Y136.073 E17.38547
G1 X68.106 Y134.888 E17.46532
G1 X67.319 Y134.393 E17.49625
G1 X66.926 Y134.108 E17.51239
G1 X66.349 Y133.667 E17.53655
G1 X65.492 Y132.97 E17.57329
G1 X64.874 Y132.43 E17.60059
G1 X64.438 Y132.031 E17.62024
G1 X63.799 Y131.392 E17.6503
G1 X63.421 Y130.958 E17.66944
G1 X62.127 Y129.386 E17.73716
G1 X60.612 Y127.609 E17.81483
G1 X60.057 Y126.896 E17.84488
G1 X59.772 Y126.475 E17.86179
G1 X59.202 Y125.575 E17.89722
G1 X58.829 Y124.939 E17.92175
G1 X58.402 Y124.167 E17.95109
G1 X58.156 Y123.696 E17.96876
G1 X57.767 Y122.862 E17.99937
G1 X57.555 Y122.313 E18.01894
G1 X57.06 Y120.909 E18.06846
G1 X56.051 Y118.181 E18.1652
G1 X55.768 Y117.296 E18.1961
G1 X55.654 Y116.836 E18.21187
G1 X55.504 Y116.165 E18.23473
G1 X55.343 Y115.351 E18.26233
G1 X55.205 Y114.515 E18.29051
G1 X55.089 Y113.668 E18.31895
G1 X55.008 Y112.74 E18.34993
G1 X54.999 Y112.17 E18.36889
G1 X55.016 Y110.677 E18.41855
G1 X54.998 Y107.798 E18.51431
G1 X55.035 Y106.868 E18.54527
G1 X55.086 Y106.382 E18.56152
G1 X55.178 Y105.681 E18.58504
G1 X55.299 Y104.901 E18.61129
G1 X55.51 Y103.792 E18.64884
G1 X55.641 Y103.204 E18.66887
G1 X55.883 Y102.305 E18.69984
G1 X56.065 Y101.781 E18.71829
G1 X56.647 Y100.231 E18.77336
G1 X57.562 Y97.669 E18.86384
G1 X57.913 Y96.809 E18.89473
G1 X58.122 Y96.382 E18.91055
G1 X58.596 Y95.475 E18.94458
G1 X58.974 Y94.806 E18.97014
G1 X59.424 Y94.061 E18.99909
G1 X59.72 Y93.595 E19.01745
G1 X60.254 Y92.832 E19.04843
G1 X60.613 Y92.39 E19.06737
G1 X61.484 Y91.373 E19.1119
G1 X63.456 Y89.005 E19.21439
G1 X64.396 Y88.015 E19.2598
G1 X64.912 Y87.538 E19.28317
G1 X65.297 Y87.2 E19.30021
G1 X66.094 Y86.535 E19.33474
G1 X66.889 Y85.914 E19.36829
M204 S2000
G0 F7500 X67.118 Y86.242
M204 S500
G1 F1500 X67.859 Y85.725 E19.39834
G1 X68.329 Y85.444 E19.41655
G1 X69.414 Y84.835 E19.45794
G1 X72.004 Y83.323 E19.55769
G1 X72.798 Y82.893 E19.58772
G1 X73.337 Y82.65 E19.60738
G1 X73.95 Y82.395 E19.62946
G1 X74.66 Y82.12 E19.65479
G1 X75.535 Y81.812 E19.68564
G1 X76.322 Y81.56 E19.71313
G1 X77.194 Y81.327 E19.74315
G1 X77.714 Y81.227 E19.76076
G1 X78.998 Y81.014 E19.80405
G1 X79.146 Y80.981 E19.80909
G1 X79.96 Y80.85 E19.83651
G1 X81.98 Y80.474 E19.90485
G1 X82.875 Y80.348 E19.93492
G1 X83.383 Y80.312 E19.95185
G1 X84.088 Y80.28 E19.97533
G1 X84.817 Y80.265 E19.99958
G1 X85.731 Y80.274 E20.02998
G1 X86.555 Y80.305 E20.0574
G1 X87.454 Y80.384 E20.08742
G1 X87.973 Y80.467 E20.1049
G1 X91.767 Y81.143 E20.23308
G1 X92.512 Y81.266 E20.25819
G1 X93.242 Y81.404 E20.2829
G1 X95.821 Y81.855 E20.36998
G1 X98.289 Y82.215 E20.45294
G1 X100.859 Y82.516 E20.539
G1 X103.34 Y82.735 E20.62184
G1 X105.902 Y82.889 E20.70721
G1 X108.442 Y82.969 E20.79173
G1 X110.976 Y82.978 E20.87601
G1 X113.537 Y82.914 E20.96122
G1 X116.045 Y82.78 E21.04475
G1 X118.56 Y82.575 E21.12868
G1 X121.127 Y82.292 E21.21457
G1 X123.577 Y81.951 E21.29685
G1 X127.623 Y81.242 E21.43347
